src/svg/file-symlink-directory.svg

<svg height="16" width="14" xmlns="http://www.w3.org/2000/svg" viewBox="0 0 14 16">
  <path d="M13 4H7v-1c0-0.66-0.31-1-1-1H1c-0.55 0-1 0.45-1 1v10c0 0.55 0.45 1 1 1h12c0.55 0 1-0.45 1-1V5c0-0.55-0.45-1-1-1zM1 3h5v1H1v-1z m6 9V10c-0.98-0.02-1.84 0.22-2.55 0.7s-1.19 1.25-1.45 2.3c0.02-1.64 0.39-2.88 1.13-3.73 0.73-0.84 1.69-1.27 2.88-1.27V6l4 3-4 3z" />
</svg>

<?xml version="1.0" encoding="UTF-8" standalone="no"?>
<svg width="14px" height="16px" viewBox="0 0 14 16" version="1.1" xmlns="http://www.w3.org/2000/svg" xmlns:xlink="http://www.w3.org/1999/xlink">
    <!-- Generator: Sketch 3.7.1 (28215) - http://www.bohemiancoding.com/sketch -->
    <title>file-symlink-directory</title>
    <desc>Created with Sketch.</desc>
    <defs></defs>
    <g id="Octicons" stroke="none" stroke-width="1" fill="none" fill-rule="evenodd">
        <g id="file-symlink-directory" fill="#000000">
            <path d="M13,4 L7,4 L7,3 C7,2.34 6.69,2 6,2 L1,2 C0.45,2 0,2.45 0,3 L0,13 C0,13.55 0.45,14 1,14 L13,14 C13.55,14 14,13.55 14,13 L14,5 C14,4.45 13.55,4 13,4 L13,4 Z M1,3 L6,3 L6,4 L1,4 L1,3 L1,3 Z M7,12 L7,10 C6.02,9.98 5.16,10.22 4.45,10.7 C3.74,11.18 3.26,11.95 3,13 C3.02,11.36 3.39,10.12 4.13,9.27 C4.86,8.43 5.82,8 7.01,8 L7.01,6 L11.01,9 L7.01,12 L7,12 Z" id="Shape"></path>
        </g>
    </g>
</svg>
